svg/u1f99c.svg

<svg viewBox="0 0 128 128" xmlns="http://www.w3.org/2000/svg">
  <path d="M40.01,95.48c0,0,2.44,10.04,2.06,11.45c-0.38,1.41-7.32,2.53-11.36,4.6 c-2.65,1.36-6.92,4.39-4.32,6.84c1.41,1.33,5.35-2.03,17.18-2.71c12.01-0.69,14.13,0.29,13.51-2.25c-0.61-2.53-3.8-2.82-6.48-3.94 c-0.89-0.37-1.92-0.96-2.35-1.6c-0.41-0.61,0.19-10.98,0.19-10.98L40.01,95.48z" fill="#FEBA02"/>
  <path d="M62.16,102.52c0,0,0.28,10.15,0.28,10.8c0,0.95-2.32,2.09-5.77,2.86 c-3.45,0.77-10.28,2.05-10.37,6.42c-0.06,2.69,13.12-0.95,20.65-0.84s12.36,1.1,12.01-2.06c-0.28-2.53-4.2-3.68-6.31-4.14 c-2.11-0.46-3.07-1.49-3.13-2.75c-0.04-0.82,0.14-10.07,0.14-10.07L62.16,102.52z" fill="#FEBA02"/>
  <linearGradient id="SVGID_1_" gradientUnits="userSpaceOnUse" x1="46.8536" x2="65.8573" y1="97.0571" y2="33.6487">
    <stop offset="0.1362" stop-color="#79DA88"/>
    <stop offset="0.3039" stop-color="#57CD75"/>
    <stop offset="0.6343" stop-color="#19B553"/>
    <stop offset="0.7914" stop-color="#01AB46"/>
  </linearGradient>
  <path d="M41.89,8.01l9.06-0.61c0,0,5.04,1.63,9.83,8.57c6.36,9.23,5.52,26.11,5.52,26.11l17.46,46.55 l2.11,15.39c0,0-15.62,2.46-30.92,0.47c-18.02-2.35-36.6-18.68-36.32-43.08c0.28-24.4,19.62-47.96,19.62-47.96L41.89,8.01z" fill="url(#SVGID_1_)"/>
  <path d="M21.15,16.93c0,0-6.95,2.16-8.92,9.95S13.55,41.92,15,42.41c0.56,0.19,2.3-3.33,2.3-3.33 s2.44,2.82,3.66,3.47c1.22,0.66,1.83,1.15,2.91,1.08c2.11-0.14,5.21-6.29,5.12-10.42l1.08-20.23L21.15,16.93z" fill="#FFD51D"/>
  <path d="M29.85,28.09c0,0,8.47-1.41,11.85-4.32s7.32-5.54,8.63-10.79c0.8-3.2,0.84-5.44,0.84-5.44 S39.36,0.69,28.66,6.32S20.49,19.6,20.49,19.6L29.85,28.09z" fill="#FF2B23"/>
  <path d="M29.5,29.22c0,0-6.85,4.04-7.6,4.6s-3.2,1.78-4.32,2.72c-1.78,1.5-3.38,4.88-2.72,5.73 c0.66,0.84,1.6-1.78,4.22-3.38s7.13-4.13,8.35-4.79c1.22-0.66,1.6-1.03,1.6-1.03L29.5,29.22z" fill="#FF600D"/>
  <path d="M31.83,27.46c0.47-0.99,0.68-3.26-2.51-7.25c-3.75-4.69-9.01-4.88-9.01-4.88l-0.56,1.88l5.82,5.82 L28.8,30C28.8,30,30.86,29.5,31.83,27.46z" fill="#A02A1B"/>
  <path d="M15.89,20.4c0,0,4.32,0.28,7.32,2.91c1.78,1.56,4.47,4.9,5.13,6.41s2.91-2.67,1.13-5.49 s-3.91-5.65-7.85-7.02C18.78,16.23,16.08,18.62,15.89,20.4z" fill="#EC80AF"/>
  <path d="M49.49,25.94c0,0-3.47-8.82-10.61-8.45c-7.2,0.38-8.31,5.73-7.98,8.92c0.38,3.69,2.82,5.73,8.45,5.54 C44.99,31.75,49.49,25.94,49.49,25.94z" fill="#FBD3B3"/>
  <path d="M44.24,24.81c0,2.28-2.48,4.32-4.74,4.32c-2.25,0-4.08-1.85-4.08-4.13s1.31-4.79,4.5-4.97 C43.29,19.82,44.24,22.53,44.24,24.81z" fill="#312F2A"/>
  <path d="M86.38,80.75c0,0,2.25,5.07,10.89,10.7c7.33,4.78,10.89,7.7,15.96,9.48 c5.07,1.78,5.26,2.25,5.07,3.19c-0.19,0.94-8.07,7.04-16.71,6.29c-8.63-0.75-12.76-4.13-15.39-5.91s-7.6-14.36-7.6-14.36 L86.38,80.75z" fill="#01AB46"/>
  <path d="M66.34,41.84c0,0-11.97,3.52-17.22,11.5c-4.4,6.68-4.01,18.04,0.47,26.47 c5.54,10.42,16.99,17.83,23.09,20.65c6.1,2.82,14.45,4.22,18.11,3.85s-3.28-25.62-9.95-39.14C74.34,51.98,66.34,41.84,66.34,41.84z" fill="#B7D019"/>
</svg>

<svg viewBox="0 0 128 128" xmlns="http://www.w3.org/2000/svg">
  <defs>
    <linearGradient id="SVGID_1_" gradientUnits="userSpaceOnUse" x1="46.8536" x2="65.8573" y1="97.0571" y2="33.6487">
      <stop offset="0.1362" stop-color="#79DA88"/>
      <stop offset="0.3039" stop-color="#57CD75"/>
      <stop offset="0.6343" stop-color="#19B553"/>
      <stop offset="0.7914" stop-color="#01AB46"/>
    </linearGradient>
  </defs>
  <path d="M40.01,95.48 C40.01,95.48 42.45,105.52 42.07,106.93 C41.69,108.34 34.75,109.46 30.71,111.53 C28.06,112.89 23.79,115.92 26.39,118.37 C27.8,119.7 31.74,116.34 43.57,115.66 C55.58,114.97 57.7,115.95 57.08,113.41 C56.47,110.88 53.28,110.59 50.6,109.47 C49.71,109.1 48.68,108.51 48.25,107.87 C47.84,107.26 48.44,96.89 48.44,96.89 L40.01,95.48 Z" fill="#FEBA02"/>
  <path d="M62.16,102.52 C62.16,102.52 62.44,112.67 62.44,113.32 C62.44,114.27 60.12,115.41 56.67,116.18 C53.22,116.95 46.39,118.23 46.3,122.6 C46.24,125.29 59.42,121.65 66.95,121.76 C74.48,121.87 79.31,122.86 78.96,119.7 C78.68,117.17 74.76,116.02 72.65,115.56 C70.54,115.1 69.58,114.07 69.52,112.81 C69.48,111.99 69.66,102.74 69.66,102.74 L62.16,102.52 Z" fill="#FEBA02"/>
  <path d="M41.89,8.01 L50.95,7.4 C50.95,7.4 55.99,9.03 60.78,15.97 C67.14,25.2 66.3,42.08 66.3,42.08 L83.76,88.63 L85.87,104.02 C85.87,104.02 70.25,106.48 54.95,104.49 C36.93,102.14 18.35,85.81 18.63,61.41 C18.91,37.01 38.25,13.45 38.25,13.45 L41.89,8.01 Z" fill="url(#SVGID_1_)"/>
  <path d="M21.15,16.93 C21.15,16.93 14.2,19.09 12.23,26.88 C10.26,34.67 13.55,41.92 15,42.41 C15.56,42.6 17.3,39.08 17.3,39.08 C17.3,39.08 19.74,41.9 20.96,42.55 C22.18,43.21 22.79,43.7 23.87,43.63 C25.98,43.49 29.08,37.34 28.99,33.21 L30.07,12.98 L21.15,16.93 Z" fill="#FFD51D"/>
  <path d="M29.85,28.09 C29.85,28.09 38.32,26.68 41.7,23.77 C45.08,20.86 49.02,18.23 50.33,12.98 C51.13,9.78 51.17,7.54 51.17,7.54 C51.17,7.54 39.36,0.69 28.66,6.32 C17.96,11.95 20.49,19.6 20.49,19.6 L29.85,28.09 Z" fill="#FF2B23"/>
  <path d="M29.5,29.22 C29.5,29.22 22.65,33.26 21.9,33.82 C21.15,34.38 18.7,35.6 17.58,36.54 C15.8,38.04 14.2,41.42 14.86,42.27 C15.52,43.11 16.46,40.49 19.08,38.89 C21.7,37.29 26.21,34.76 27.43,34.1 C28.65,33.44 29.03,33.07 29.03,33.07 L29.5,29.22 Z" fill="#FF600D"/>
  <path d="M31.83,27.46 C32.3,26.47 32.51,24.2 29.32,20.21 C25.57,15.52 20.31,15.33 20.31,15.33 L19.75,17.21 L25.57,23.03 L28.8,30 C28.8,30 30.86,29.5 31.83,27.46 Z" fill="#A02A1B"/>
  <path d="M15.89,20.4 C15.89,20.4 20.21,20.68 23.21,23.31 C24.99,24.87 27.68,28.21 28.34,29.72 C29,31.23 31.25,27.05 29.47,24.23 C27.69,21.41 25.56,18.58 21.62,17.21 C18.78,16.23 16.08,18.62 15.89,20.4 Z" fill="#EC80AF"/>
  <path d="M49.49,25.94 C49.49,25.94 46.02,17.12 38.88,17.49 C31.68,17.87 30.57,23.22 30.9,26.41 C31.28,30.1 33.72,32.14 39.35,31.95 C44.99,31.75 49.49,25.94 49.49,25.94 Z" fill="#FBD3B3"/>
  <path d="M44.24,24.81 C44.24,27.09 41.76,29.13 39.5,29.13 C37.25,29.13 35.42,27.28 35.42,25 C35.42,22.72 36.73,20.21 39.92,20.03 C43.29,19.82 44.24,22.53 44.24,24.81 Z" fill="#312F2A"/>
  <path d="M86.38,80.75 C86.38,80.75 88.63,85.82 97.27,91.45 C104.6,96.23 108.16,99.15 113.23,100.93 C118.3,102.71 118.49,103.18 118.3,104.12 C118.11,105.06 110.23,111.16 101.59,110.41 C92.96,109.66 88.83,106.28 86.2,104.5 C83.57,102.72 78.6,90.14 78.6,90.14 L86.38,80.75 Z" fill="#01AB46"/>
  <path d="M66.34,41.84 C66.34,41.84 54.37,45.36 49.12,53.34 C44.72,60.02 45.11,71.38 49.59,79.81 C55.13,90.23 66.58,97.64 72.68,100.46 C78.78,103.28 87.13,104.68 90.79,104.31 C94.45,103.94 87.51,78.69 80.84,65.17 C74.34,51.98 66.34,41.84 66.34,41.84 Z" fill="#B7D019"/>
</svg>
